X:1
T: Ed Crouch's
R: jig
C: Rick Gagne
N: 1990 on whistle
Q: 1/4=165
M: 6/8
K: G
B | "G"G2G FGG | "C"EGG "G"DGG | "C"eGG "G"dGG | "C"eGG "D"fGG |
"G"G2G FGG | "C"EGG "G"DGG | "C"eGG "G"dGG | "C"Ggf g2 :|
d | "Em"gab agf | "Am"eaa eaa | "G"bge dBG | "D"Ad^c def |
"Em"gab agd | "Am"eaa eaa | "Em"bge "Bm"dBG | "C"Ggf "G"g2 :|
